config/expand/iconfont/nav-menu/menu-xushuichiguanli.svg

<?xml version="1.0" standalone="no"?><!DOCTYPE svg PUBLIC "-//W3C//DTD SVG 1.1//EN" "http://www.w3.org/Graphics/SVG/1.1/DTD/svg11.dtd"><svg class="icon" width="48px" height="48.00px" viewBox="0 0 1024 1024" version="1.1" xmlns="http://www.w3.org/2000/svg"><path fill="#D9DDE1" d="M728.715008 64.659547l72.909875 113.713821h107.957779v795.86884H113.713822V178.373368h257.550933L439.569796 64.659547H63.95603a63.95603 63.95603 0 0 0-63.95603 63.95603v831.428393a63.95603 63.95603 0 0 0 63.95603 63.95603h895.384423a63.95603 63.95603 0 0 0 63.956031-63.95603V128.615577a63.95603 63.95603 0 0 0-63.956031-63.95603h-230.625445z"  /><path fill="#D9DDE1" d="M0 520.53813s182.914246-162.256449 441.680345 0C700.510399 682.730623 959.340453 469.117482 959.340453 469.117482v513.886703H11.256261L0 520.53813zM601.506464 0.703516c41.57142 50.461308 82.759103 100.155143 110.004372 159.634252 32.041971 70.095809-20.593842 149.976891-94.3991 159.890075-72.206358 9.657361-137.825245-46.687902-137.249641-118.57448 0.127912-21.297358 8.570108-40.484167 18.227468-59.031416 26.733621-51.164824 62.67691-95.934045 100.091188-139.743926 0.575604-0.63956 1.470989-0.95934 3.325713-2.174505z"  /></svg>

<svg class="icon" width="48" height="48" viewBox="0 0 1024 1024" xmlns="http://www.w3.org/2000/svg"><path d="M728.715 64.66l72.91 113.713h107.958v795.87h-795.87v-795.87h257.552L439.57 64.66H63.956A63.956 63.956 0 000 128.616v831.428A63.956 63.956 0 0063.956 1024H959.34a63.956 63.956 0 0063.956-63.956V128.616A63.956 63.956 0 00959.34 64.66H728.715z"/><path d="M0 520.538s182.914-162.256 441.68 0c258.83 162.193 517.66-51.42 517.66-51.42v513.886H11.256L0 520.538zM601.506.704c41.572 50.46 82.76 100.155 110.005 159.634 32.042 70.096-20.594 149.977-94.4 159.89-72.206 9.657-137.825-46.688-137.249-118.575.128-21.297 8.57-40.484 18.228-59.031 26.733-51.165 62.676-95.934 100.09-139.744.576-.64 1.472-.96 3.326-2.174z"/></svg>
